X: 67
T: San pi zaoliu ma
%%abc-version 2.0
%%abcx-abcm2ps-target-version 5.9.1 (29 Sep 2008)
%%abc-creator hum2abc beta
%%abcx-conversion-date 2013/10/02 07:44:27
%%abc-edited-by Helmut Schaffrath
%%humdrum-veritas 4280427286
%%humdrum-veritas-data 3314585188
%%continueall 1
%%barnumbers 0
L: 1/8
M: 4/4
K: C
A2A dD2E G [I:setbarnb 1]| 
A6E2 | 
A G E AA,2C2 | 
D8 | 
A G E DC2D2 | 
d2>g2e3d | 
c> d e gd2c e | 
A8 |]  



